svg/arrow_down_bold_circle_outline.svg

<svg xmlns="http://www.w3.org/2000/svg" viewBox="0 0 24 24"><path d="m12 17-5-5h3V8h4v4h3zm0-15a10 10 0 0 1 10 10 10 10 0 0 1-10 10A10 10 0 0 1 2 12 10 10 0 0 1 12 2m0 2a8 8 0 0 0-8 8 8 8 0 0 0 8 8 8 8 0 0 0 8-8 8 8 0 0 0-8-8"/></svg>

<?xml version="1.0" encoding="UTF-8"?><!DOCTYPE svg PUBLIC "-//W3C//DTD SVG 1.1//EN" "http://www.w3.org/Graphics/SVG/1.1/DTD/svg11.dtd"><svg xmlns="http://www.w3.org/2000/svg" xmlns:xlink="http://www.w3.org/1999/xlink" version="1.1" id="mdi-arrow-down-bold-circle-outline" width="24" height="24" viewBox="0 0 24 24"><path d="M12,17L7,12H10V8H14V12H17L12,17M12,2A10,10 0 0,1 22,12A10,10 0 0,1 12,22A10,10 0 0,1 2,12A10,10 0 0,1 12,2M12,4A8,8 0 0,0 4,12A8,8 0 0,0 12,20A8,8 0 0,0 20,12A8,8 0 0,0 12,4Z" /></svg>
